X:359
T:Kings of Inishbofin, The
R:jig
C:Charlie Lennon
Z:id:hn-jig-359
M:6/8
L:1/8
K:D
AB/c/d AFA|GEE E2A|Ace ged|cdc BcB|
AB/c/d AFA|GEE E2A|Ace ged|1 BcA d2B:|2 BcA d2e||
|:~f3 fdA|Bgg gdB|~g3 gdB|Aea bag|
~f3 fdA|Bgg gdB|Ace bag|1 fge d2e:|2 fge d2B||

